favicon.svg

<svg xmlns="http://www.w3.org/2000/svg" width="231.681" height="230.721" viewBox="0 0 724 721"><path fill="#91bf10" d="M15 447l10-7.23 18-10.07 62-35 90-50.85 35-19.21 8-.64h163c-5.05 7.06-9.91 10.41-16 16.09l-22 21-34 32.87-30 28.08-20 19.05c-7.84 7.3-7.92 10.89-19 10.91h-14l-16-1h-31l-17-1-80-1-17-1H54l-17-1H15z"/><path fill="#d5ed4f" d="M438 325c2.58-5.41 13.11-14.18 18-18.42l29-26.67 49-45.08c3.82-3.45 17.36-16.89 21-18.03 3.95-1.66 14.87.19 20 0l22 1.2 22 1 50 2 11 .91c8.54.59 11.36-.64 21 1.09l-30 28.09-55 50.33-26 22.65-8 .93H438zM555.01 10c2.39 6.06.16 14.62 0 21l-3.92 57-3.18 52-1.87 22-1.95 29c-.27 3.96.33 9.24-1.12 12.91-1.28 3.23-6.35 7.53-8.97 10.08l-22 20.18-54 50c-6.34 5.73-20.62 20.41-27 23.83V167c.02-10.45 3.73-12.18 10.25-20l21.67-26 92.09-111z"/><path fill="#d5ed4f" d="M555.01 10c2.39 6.06.16 14.62 0 21l-3.92 57-3.18 52-1.87 22-1.95 29c-.27 3.96.33 9.24-1.12 12.91-1.28 3.23-6.35 7.53-8.97 10.08l-22 20.18-54 50c-6.34 5.73-20.62 20.41-27 23.83V167c.02-10.45 3.73-12.18 10.25-20l21.67-26 92.09-111zM307 51c9.48 6.79 20.76 20.34 29.04 29l25.95 26 9.05 10L389 134l15.09 16c7.08 7.6 9.89 7.3 9.91 18v140l-10.99-10-21.1-23-37-40-22.33-24-16.98-20-.6-7v-13l1-15v-53l1-17V51z"/><path fill="#91bf10" d="M135 196l32 1 22 1 16 1 20 1.04h12l12 .96 20 1 24.83 1.6 18.21 18.4 46.05 50 22.19 24 8.72 11H242l-8-1.02-9.17-8.98-14.55-16-48.45-54L135 196z"/><path fill="#3b760a" d="M413 333c1.88 4.73 1 25.55 1 32v171l-1 15v74c0 2.09.12 5.06-.6 7-1.49 4.04-12.77 14.37-16.4 18l-41 41c-5.4 5.4-14.55 15.95-21 19l1-47v-57-187c0-2.09-.12-5.06.6-7 1.56-4.25 15.41-17.01 19.4-21l58-58z"/></svg>

<?xml version="1.0" encoding="UTF-8" standalone="no"?>
<!DOCTYPE svg PUBLIC "-//W3C//DTD SVG 20010904//EN"
              "http://www.w3.org/TR/2001/REC-SVG-20010904/DTD/svg10.dtd">

<svg xmlns="http://www.w3.org/2000/svg"
     width="61.2988mm" height="61.0448mm"
     viewBox="0 0 724 721">
  <path id="Selection #6"
        fill="#91bf10" stroke="none" stroke-width="1"
        d="M 15.00,447.00
           C 15.00,447.00 25.00,439.77 25.00,439.77
             25.00,439.77 43.00,429.70 43.00,429.70
             43.00,429.70 105.00,394.70 105.00,394.70
             105.00,394.70 195.00,343.85 195.00,343.85
             195.00,343.85 230.00,324.64 230.00,324.64
             230.00,324.64 238.00,324.00 238.00,324.00
             238.00,324.00 401.00,324.00 401.00,324.00
             395.95,331.06 391.09,334.41 385.00,340.09
             385.00,340.09 363.00,361.09 363.00,361.09
             363.00,361.09 329.00,393.96 329.00,393.96
             329.00,393.96 299.00,422.04 299.00,422.04
             299.00,422.04 279.00,441.09 279.00,441.09
             271.16,448.39 271.08,451.98 260.00,452.00
             260.00,452.00 246.00,452.00 246.00,452.00
             246.00,452.00 230.00,451.00 230.00,451.00
             230.00,451.00 199.00,451.00 199.00,451.00
             199.00,451.00 182.00,450.00 182.00,450.00
             182.00,450.00 102.00,449.00 102.00,449.00
             102.00,449.00 85.00,448.00 85.00,448.00
             85.00,448.00 54.00,448.00 54.00,448.00
             54.00,448.00 37.00,447.00 37.00,447.00
             37.00,447.00 15.00,447.00 15.00,447.00 Z" />
  <path id="Selection #5"
        fill="#d5ed4f" stroke="none" stroke-width="1"
        d="M 438.00,325.00
           C 440.58,319.59 451.11,310.82 456.00,306.58
             456.00,306.58 485.00,279.91 485.00,279.91
             485.00,279.91 534.00,234.83 534.00,234.83
             537.82,231.38 551.36,217.94 555.00,216.80
             558.95,215.14 569.87,216.99 575.00,216.80
             575.00,216.80 597.00,218.00 597.00,218.00
             597.00,218.00 619.00,219.00 619.00,219.00
             619.00,219.00 669.00,221.00 669.00,221.00
             669.00,221.00 680.00,221.91 680.00,221.91
             688.54,222.50 691.36,221.27 701.00,223.00
             701.00,223.00 671.00,251.09 671.00,251.09
             671.00,251.09 616.00,301.42 616.00,301.42
             616.00,301.42 590.00,324.07 590.00,324.07
             590.00,324.07 582.00,325.00 582.00,325.00
             582.00,325.00 438.00,325.00 438.00,325.00 Z" />
  <path id="Selection #4"
        fill="#d5ed4f" stroke="none" stroke-width="1"
        d="M 555.01,10.00
           C 557.40,16.06 555.17,24.62 555.01,31.00
             555.01,31.00 551.09,88.00 551.09,88.00
             551.09,88.00 547.91,140.00 547.91,140.00
             547.91,140.00 546.04,162.00 546.04,162.00
             546.04,162.00 544.09,191.00 544.09,191.00
             543.82,194.96 544.42,200.24 542.97,203.91
             541.69,207.14 536.62,211.44 534.00,213.99
             534.00,213.99 512.00,234.17 512.00,234.17
             512.00,234.17 458.00,284.17 458.00,284.17
             451.66,289.90 437.38,304.58 431.00,308.00
             431.00,308.00 431.00,167.00 431.00,167.00
             431.02,156.55 434.73,154.82 441.25,147.00
             441.25,147.00 462.92,121.00 462.92,121.00
             462.92,121.00 555.01,10.00 555.01,10.00 Z" />
  <path id="Selection #3"
        fill="#d5ed4f" stroke="none" stroke-width="1"
        d="M 555.01,10.00
           C 557.40,16.06 555.17,24.62 555.01,31.00
             555.01,31.00 551.09,88.00 551.09,88.00
             551.09,88.00 547.91,140.00 547.91,140.00
             547.91,140.00 546.04,162.00 546.04,162.00
             546.04,162.00 544.09,191.00 544.09,191.00
             543.82,194.96 544.42,200.24 542.97,203.91
             541.69,207.14 536.62,211.44 534.00,213.99
             534.00,213.99 512.00,234.17 512.00,234.17
             512.00,234.17 458.00,284.17 458.00,284.17
             451.66,289.90 437.38,304.58 431.00,308.00
             431.00,308.00 431.00,167.00 431.00,167.00
             431.02,156.55 434.73,154.82 441.25,147.00
             441.25,147.00 462.92,121.00 462.92,121.00
             462.92,121.00 555.01,10.00 555.01,10.00 Z" />
  <path id="Selection #2"
        fill="#d5ed4f" stroke="none" stroke-width="1"
        d="M 307.00,51.00
           C 316.48,57.79 327.76,71.34 336.04,80.00
             336.04,80.00 361.99,106.00 361.99,106.00
             361.99,106.00 371.04,116.00 371.04,116.00
             371.04,116.00 389.00,134.00 389.00,134.00
             389.00,134.00 404.09,150.00 404.09,150.00
             411.17,157.60 413.98,157.30 414.00,168.00
             414.00,168.00 414.00,308.00 414.00,308.00
             414.00,308.00 403.01,298.00 403.01,298.00
             403.01,298.00 381.91,275.00 381.91,275.00
             381.91,275.00 344.91,235.00 344.91,235.00
             344.91,235.00 322.58,211.00 322.58,211.00
             322.58,211.00 305.60,191.00 305.60,191.00
             305.60,191.00 305.00,184.00 305.00,184.00
             305.00,184.00 305.00,171.00 305.00,171.00
             305.00,171.00 306.00,156.00 306.00,156.00
             306.00,156.00 306.00,103.00 306.00,103.00
             306.00,103.00 307.00,86.00 307.00,86.00
             307.00,86.00 307.00,51.00 307.00,51.00 Z" />
  <path id="Selection #1"
        fill="#91bf10" stroke="none" stroke-width="1"
        d="M 135.00,196.00
           C 135.00,196.00 167.00,197.00 167.00,197.00
             167.00,197.00 189.00,198.00 189.00,198.00
             189.00,198.00 205.00,199.00 205.00,199.00
             205.00,199.00 225.00,200.04 225.00,200.04
             225.00,200.04 237.00,200.04 237.00,200.04
             237.00,200.04 249.00,201.00 249.00,201.00
             249.00,201.00 269.00,202.00 269.00,202.00
             269.00,202.00 293.83,203.60 293.83,203.60
             293.83,203.60 312.04,222.00 312.04,222.00
             312.04,222.00 358.09,272.00 358.09,272.00
             358.09,272.00 380.28,296.00 380.28,296.00
             380.28,296.00 389.00,307.00 389.00,307.00
             389.00,307.00 242.00,307.00 242.00,307.00
             242.00,307.00 234.00,305.98 234.00,305.98
             234.00,305.98 224.83,297.00 224.83,297.00
             224.83,297.00 210.28,281.00 210.28,281.00
             210.28,281.00 161.83,227.00 161.83,227.00
             161.83,227.00 135.00,196.00 135.00,196.00 Z" />
  <path id="Selection"
        fill="#3b760a" stroke="none" stroke-width="1"
        d="M 413.00,333.00
           C 414.88,337.73 414.00,358.55 414.00,365.00
             414.00,365.00 414.00,438.00 414.00,438.00
             414.00,438.00 414.00,536.00 414.00,536.00
             414.00,536.00 413.00,551.00 413.00,551.00
             413.00,551.00 413.00,625.00 413.00,625.00
             413.00,627.09 413.12,630.06 412.40,632.00
             410.91,636.04 399.63,646.37 396.00,650.00
             396.00,650.00 355.00,691.00 355.00,691.00
             349.60,696.40 340.45,706.95 334.00,710.00
             334.00,710.00 335.00,663.00 335.00,663.00
             335.00,663.00 335.00,606.00 335.00,606.00
             335.00,606.00 335.00,419.00 335.00,419.00
             335.00,416.91 334.88,413.94 335.60,412.00
             337.16,407.75 351.01,394.99 355.00,391.00
             355.00,391.00 413.00,333.00 413.00,333.00 Z" />
</svg>
